X:43
T: WAS SOLL ICH IN DER FREMDE THUN
N: B0529
O: Europa, Mitteleuropa, Deutschland
R: Wander -, Heimat - Lied
M: 4/4
L: 1/16
K: C
G,2F,2 | E,2F,2G,2^F,2G,4C4 | E6D2C4z2
G,2 | G,2A,2G,2D2G,2F2E2D2 | C8z4
G,2F,2 | E,2F,2G,2^F,2G,4C4 | E6D2C4z2
E2 | D2A,2C2^F,2A,2D,2B,2A,2 | G,8z4
G,4 | A,2G,2^F,2G,2A,2B,2C2D2 | E2G,2C2E,2G,4z2
G,2 | F2B,2D6G,2B,2D2 | E2G,2C6
G,2C2E2 | A2G2F2B,2D4F3E | C8z4

